logos/pycharm.svg

<?xml version="1.0" encoding="UTF-8"?>
<svg width="256px" height="256px" viewBox="0 0 256 256" version="1.1" xmlns="http://www.w3.org/2000/svg" preserveAspectRatio="xMidYMid">
    <title>PyCharm</title>
    <defs>
        <linearGradient x1="-46.685879%" y1="50%" x2="90.5139289%" y2="50%" id="pycharmLinearGradient-1">
            <stop stop-color="#21D789" offset="0%"></stop>
            <stop stop-color="#07C3F2" offset="100%"></stop>
        </linearGradient>
        <linearGradient x1="-19.1597915%" y1="105.481057%" x2="105.922196%" y2="-7.57713839%" id="pycharmLinearGradient-2">
            <stop stop-color="#FCF84A" offset="1%"></stop>
            <stop stop-color="#A7EB62" offset="11%"></stop>
            <stop stop-color="#5FE077" offset="21%"></stop>
            <stop stop-color="#32DA84" offset="27%"></stop>
            <stop stop-color="#21D789" offset="31%"></stop>
            <stop stop-color="#21D789" offset="58%"></stop>
            <stop stop-color="#21D789" offset="60%"></stop>
            <stop stop-color="#20D68C" offset="69%"></stop>
            <stop stop-color="#1ED497" offset="76%"></stop>
            <stop stop-color="#19D1A9" offset="83%"></stop>
            <stop stop-color="#13CCC2" offset="90%"></stop>
            <stop stop-color="#0BC6E1" offset="97%"></stop>
            <stop stop-color="#07C3F2" offset="100%"></stop>
        </linearGradient>
        <linearGradient x1="42.2298893%" y1="115.966514%" x2="61.1794942%" y2="22.2526636%" id="pycharmLinearGradient-3">
            <stop stop-color="#21D789" offset="0%"></stop>
            <stop stop-color="#24D888" offset="16%"></stop>
            <stop stop-color="#2FD985" offset="30%"></stop>
            <stop stop-color="#41DC80" offset="43%"></stop>
            <stop stop-color="#5AE079" offset="55%"></stop>
            <stop stop-color="#7AE46F" offset="67%"></stop>
            <stop stop-color="#A1EA64" offset="79%"></stop>
            <stop stop-color="#CFF157" offset="90%"></stop>
            <stop stop-color="#FCF84A" offset="100%"></stop>
        </linearGradient>
        <linearGradient x1="-9.711365%" y1="144.549783%" x2="118.64101%" y2="8.29174756%" id="pycharmLinearGradient-4">
            <stop stop-color="#21D789" offset="0%"></stop>
            <stop stop-color="#23D986" offset="9%"></stop>
            <stop stop-color="#2ADE7B" offset="17%"></stop>
            <stop stop-color="#36E669" offset="25%"></stop>
            <stop stop-color="#3BEA62" offset="27%"></stop>
            <stop stop-color="#47EB61" offset="35%"></stop>
            <stop stop-color="#67ED5D" offset="49%"></stop>
            <stop stop-color="#9AF156" offset="69%"></stop>
            <stop stop-color="#E0F64D" offset="92%"></stop>
            <stop stop-color="#FCF84A" offset="100%"></stop>
        </linearGradient>
        <linearGradient x1="105.92021%" y1="50.4805683%" x2="-8.03965366%" y2="49.366207%" id="pycharmLinearGradient-5">
            <stop stop-color="#FCF84A" offset="39%"></stop>
            <stop stop-color="#ECF74C" offset="46%"></stop>
            <stop stop-color="#C1F451" offset="61%"></stop>
            <stop stop-color="#7EEF5A" offset="82%"></stop>
            <stop stop-color="#3BEA62" offset="100%"></stop>
        </linearGradient>
    </defs>
    <g>
        <polygon fill="url(#pycharmLinearGradient-1)" points="179.493333 40.4 254.293333 102.613333 227.36 157.413333 182.266667 144.906667 143.253333 144.906667"></polygon>
        <polygon fill="url(#pycharmLinearGradient-2)" points="104.133333 80.8 89.6533333 157.413333 88.2666667 183.44 51.76 199.253333 0 204.826667 15.7066667 39.3066667 109.493333 0 167.28 37.8933333"></polygon>
        <polygon fill="url(#pycharmLinearGradient-3)" points="104.133333 80.8 111.173333 228.426667 87.7866667 256 1.42108547e-14 204.826667 72.08 97.4133333"></polygon>
        <polygon fill="url(#pycharmLinearGradient-4)" points="200.72 70.0266667 112.026667 70.0266667 190.4 0"></polygon>
        <polygon fill="url(#pycharmLinearGradient-5)" points="256 229.013333 177.92 255.52 73.9466667 226.24 104.133333 80.8 116.186667 70.0266667 179.493333 64.08 173.76 127.653333 224.106667 108.133333"></polygon>
        <polygon fill="#000000" points="48 48 208 48 208 208 48 208"></polygon>
        <path d="M67.9466667,177.76 L127.946667,177.76 L127.946667,187.76 L67.9466667,187.76 L67.9466667,177.76 Z M68,68 L92.5333333,68 C106.683733,68 115.319437,76.311248 115.490736,88.3539327 L115.493333,88.88 C115.493333,102.746667 104.693333,109.946667 91.2533333,109.946667 L81.3333333,109.946667 L81.3333333,127.92 L68,127.92 L68,68 Z M91.6266667,98.2133333 C98.1016949,98.2133333 101.948145,94.4250886 102.076673,89.4072913 L102.08,88.9866667 C102.08,83.0666667 97.9733333,79.8933333 91.4133333,79.8933333 L81.3333333,79.8933333 L81.3333333,98.2133333 L91.6266667,98.2133333 Z M122.64,98.16 L122.64,98 C122.484175,89.6931053 125.732055,81.6837881 131.62957,75.8316003 C137.527084,69.9794125 145.561221,66.7934226 153.866667,67.0133333 C162.69961,66.5667304 171.300685,69.9256152 177.493333,76.24 L169.12,85.92 C165.089608,81.7463734 159.586217,79.3153103 153.786667,79.1466667 C143.792296,79.1466667 136.562127,87.361037 136.40269,97.4718114 L136.4,98 C136.4,108.266667 143.52,116.826667 153.786667,116.826667 C160.01697,116.826667 164.043416,114.62281 168.270213,110.956394 L168.906036,110.395555 C169.118678,110.205014 169.332121,110.010909 169.546667,109.813333 L177.92,118.266667 C171.809646,125.410403 162.751505,129.344449 153.36,128.933333 C145.165901,129.057242 137.271786,125.853111 131.482048,120.053322 C125.692311,114.253533 122.501878,106.353871 122.64,98.16 Z" fill="#FFFFFF"></path>
    </g>
</svg>

<svg preserveAspectRatio="xMidYMid" viewBox="0 0 256 256" xmlns="http://www.w3.org/2000/svg">
  <defs>
    <linearGradient id="pycharm_svg__a" x1="-46.686%" x2="90.514%" y1="50%" y2="50%">
      <stop offset="0%" stop-color="#21D789"/>
      <stop offset="100%" stop-color="#07C3F2"/>
    </linearGradient>
    <linearGradient id="pycharm_svg__b" x1="-19.16%" x2="105.922%" y1="105.481%" y2="-7.577%">
      <stop offset="1%" stop-color="#FCF84A"/>
      <stop offset="11%" stop-color="#A7EB62"/>
      <stop offset="21%" stop-color="#5FE077"/>
      <stop offset="27%" stop-color="#32DA84"/>
      <stop offset="31%" stop-color="#21D789"/>
      <stop offset="58%" stop-color="#21D789"/>
      <stop offset="60%" stop-color="#21D789"/>
      <stop offset="69%" stop-color="#20D68C"/>
      <stop offset="76%" stop-color="#1ED497"/>
      <stop offset="83%" stop-color="#19D1A9"/>
      <stop offset="90%" stop-color="#13CCC2"/>
      <stop offset="97%" stop-color="#0BC6E1"/>
      <stop offset="100%" stop-color="#07C3F2"/>
    </linearGradient>
    <linearGradient id="pycharm_svg__c" x1="42.23%" x2="61.179%" y1="115.967%" y2="22.253%">
      <stop offset="0%" stop-color="#21D789"/>
      <stop offset="16%" stop-color="#24D888"/>
      <stop offset="30%" stop-color="#2FD985"/>
      <stop offset="43%" stop-color="#41DC80"/>
      <stop offset="55%" stop-color="#5AE079"/>
      <stop offset="67%" stop-color="#7AE46F"/>
      <stop offset="79%" stop-color="#A1EA64"/>
      <stop offset="90%" stop-color="#CFF157"/>
      <stop offset="100%" stop-color="#FCF84A"/>
    </linearGradient>
    <linearGradient id="pycharm_svg__d" x1="-9.711%" x2="118.641%" y1="144.55%" y2="8.292%">
      <stop offset="0%" stop-color="#21D789"/>
      <stop offset="9%" stop-color="#23D986"/>
      <stop offset="17%" stop-color="#2ADE7B"/>
      <stop offset="25%" stop-color="#36E669"/>
      <stop offset="27%" stop-color="#3BEA62"/>
      <stop offset="35%" stop-color="#47EB61"/>
      <stop offset="49%" stop-color="#67ED5D"/>
      <stop offset="69%" stop-color="#9AF156"/>
      <stop offset="92%" stop-color="#E0F64D"/>
      <stop offset="100%" stop-color="#FCF84A"/>
    </linearGradient>
    <linearGradient id="pycharm_svg__e" x1="105.92%" x2="-8.04%" y1="50.481%" y2="49.366%">
      <stop offset="39%" stop-color="#FCF84A"/>
      <stop offset="46%" stop-color="#ECF74C"/>
      <stop offset="61%" stop-color="#C1F451"/>
      <stop offset="82%" stop-color="#7EEF5A"/>
      <stop offset="100%" stop-color="#3BEA62"/>
    </linearGradient>
  </defs>
  <path fill="url(#pycharm_svg__a)" d="m179.493 40.4 74.8 62.213-26.933 54.8-45.093-12.506h-39.014z"/>
  <path fill="url(#pycharm_svg__b)" d="m104.133 80.8-14.48 76.613-1.386 26.027-36.507 15.813L0 204.827l15.707-165.52L109.493 0l57.787 37.893z"/>
  <path fill="url(#pycharm_svg__c)" d="m104.133 80.8 7.04 147.627L87.787 256 0 204.827 72.08 97.413z"/>
  <path fill="url(#pycharm_svg__d)" d="M200.72 70.027h-88.693L190.4 0z"/>
  <path fill="url(#pycharm_svg__e)" d="m256 229.013-78.08 26.507-103.973-29.28L104.133 80.8l12.054-10.773 63.306-5.947-5.733 63.573 50.347-19.52z"/>
  <path d="M48 48h160v160H48z"/>
  <path fill="#FFF" d="M67.947 177.76h60v10h-60v-10ZM68 68h24.533c14.15 0 22.786 8.311 22.958 20.354l.002.526c0 13.867-10.8 21.067-24.24 21.067h-9.92v17.973H68V68Zm23.627 30.213c6.475 0 10.321-3.788 10.45-8.806l.003-.42c0-5.92-4.107-9.094-10.667-9.094h-10.08v18.32h10.294Zm31.013-.053V98a30.427 30.427 0 0 1 31.227-30.987 30.907 30.907 0 0 1 23.626 9.227l-8.373 9.68a22.213 22.213 0 0 0-15.333-6.773c-9.995 0-17.225 8.214-17.384 18.325L136.4 98c0 10.267 7.12 18.827 17.387 18.827 6.23 0 10.256-2.204 14.483-5.87l.636-.561a55.5 55.5 0 0 0 .64-.583l8.374 8.454a30.56 30.56 0 0 1-24.56 10.666 30.267 30.267 0 0 1-30.72-30.773Z"/>
</svg>
